X:1
T:Title
%%score { ( 1 3 ) | 2 }
L:1/8
M:3/4
K:C
V:1 treble nm="Grand Piano"
V:3 treble 
V:2 bass 
V:1
 z2 z2[Q:1/4=100] [EG]2 | [EG]>[_E^F] [=EG]3 [=FA] | G>F F3 F | F>E F2 G2 |[M:2/4] E4 | %5
[M:1/4] [EG]2 |[M:3/4] [Ge]>[Fd] [Ec]3 [Ec] | d>A A3 A | G>c c2 B2 |[M:2/4] [Ec]4 | %10
[M:4/4] z2 A4 z2 | z2 E6 | z2 A4 z2 |[M:3/4] [FA][EG] [B,D][B,D] DD |[M:1/4] D2 | G2 | %16
[M:4/4] A4 z4 | A6 z2 | G3 c c2 B2 |[M:3/4] [Ec]6 |] %20
V:2
 z2 z2 [C,C]2 | [C,C]>[C,C] [C,C]3 [C,C] | [G,CE]>[G,B,D] [G,B,D]3 [G,B,D] | %3
 [G,B,D]>[G,_B,^C] [G,=B,D]2 [G,B,D]2 |[M:2/4] [C,G,C]4 |[M:1/4] [C,C]2 | %6
[M:3/4] [C,C]>[C,C] [C,G,]3 [C,_B,] | [F,A,F]>[F,CF] [F,CF]3 [F,CF] | %8
 [G,CE]>[G,CE] [G,DF]2 [G,DF]2 |[M:2/4][K:bass] [C,C]4 |[M:4/4] z2 z [C,C] [C,C][C,C][C,C][C,C] | %11
 [C,C][C,C][C,G,C][C,G,] [C,G,][C,G,] [C,G,]2 | z2 z [C,C] [C,C][C,C][C,C][C,C] | %13
[M:3/4] [C,C][C,C] G,G,, [B,,B,][D,B,] |[M:1/4] [G,B,]2 | z2 | %16
[M:4/4] z [C,C][C,C][C,C] [C,C][C,C][C,C][E,C] | [F,CF][F,C][F,C][F,C] [F,C]2[K:treble] [F,A,F]2 | %18
 [G,CE]3 [G,CE] [G,DF]2 [G,DF]2 |[M:3/4][K:bass] [C,C]6 |] %20
V:3
 x6 | x6 | x6 | x6 |[M:2/4] x4 |[M:1/4] x2 |[M:3/4] x6 | x6 | x6 |[M:2/4] x4 | %10
[M:4/4] G2 z E E[EG][_E^F][=EG] | [FA][EG] z C CC C2 | G2 z E E[EG][_E^F][=EG] |[M:3/4] x6 | %14
[M:1/4] x2 | x2 |[M:4/4] z EE[EG] [_E^F][=EG][Ge][Gc] | z FFF F2 c2 | x8 |[M:3/4] x6 |] %20

